build/images/computer.svg

<svg xmlns="http://www.w3.org/2000/svg" viewBox="0 0 34 31" width="34" height="31"><style/><g id="service"><g id="3"><path id="COMPUTER / OK" d="M31 25h-9.5v2.5l2 2v.5h-13v-.5l2-2V25H3c-.83 0-1.5-.67-1.5-1.5v-20C1.5 2.67 2.17 2 3 2h28c.83 0 1.5.67 1.5 1.5v20c0 .83-.67 1.5-1.5 1.5zm-.5-21h-27v17h27V4zM14 11c.41 0 .79.17 1.06.44l.94.94 2.94-2.94a1.498 1.498 0 112.12 2.12l-4 4c-.27.27-.65.44-1.06.44-.41 0-.79-.17-1.06-.44l-2-2A1.498 1.498 0 0114 11z" fill="#95e1d3"/></g></g></svg>

<svg xmlns="http://www.w3.org/2000/svg" viewBox="0 0 34 31" width="34" height="31">
	<style>
		tspan { white-space:pre }
		.shp0 { fill: #95e1d3 } 
	</style>
	<g id="service">
		<g id="3">
			<path id="COMPUTER / OK" class="shp0" d="M31 25L23.5 25L21.5 25L21.5 27.5L23.5 29.5L23.5 30L10.5 30L10.5 29.5L12.5 27.5L12.5 25L10.5 25L3 25C2.17 25 1.5 24.33 1.5 23.5L1.5 3.5C1.5 2.67 2.17 2 3 2L31 2C31.83 2 32.5 2.67 32.5 3.5L32.5 23.5C32.5 24.33 31.83 25 31 25ZM30.5 4L3.5 4L3.5 21L30.5 21L30.5 4ZM14 11C14.41 11 14.79 11.17 15.06 11.44L15.06 11.44L16 12.38L18.94 9.44L18.94 9.44C19.21 9.17 19.59 9 20 9C20.83 9 21.5 9.67 21.5 10.5C21.5 10.91 21.33 11.29 21.06 11.56L21.06 11.56L17.06 15.56L17.06 15.56C16.79 15.83 16.41 16 16 16C15.59 16 15.21 15.83 14.94 15.56L14.94 15.56L12.94 13.56L12.94 13.56C12.67 13.29 12.5 12.91 12.5 12.5C12.5 11.67 13.17 11 14 11Z" />
		</g>
	</g>
</svg>
